X:172
T: Der grausame Bruder
N: Q0068P
O: Mitteleuropa, Deutschland (DDR) , Provinz Sachsen, Estedt
R: Ballade, Schwangerschaft, Moral, Mord
M: 3/8
L: 1/16
K: C
G2 | c2B2A2 | G3EC2 | D3EF2 | F2E2
G2 | A2B2c2 | G2G2c2 | d2d2e2 | c4

@@@ Tune index: 1048
